src/assets/icon/language.svg

<svg width="24" height="24" viewBox="0 0 24 24" fill="none" xmlns="http://www.w3.org/2000/svg">
<mask id="mask0_253_10366" style="mask-type:alpha" maskUnits="userSpaceOnUse" x="0" y="0" width="24" height="24">
<rect width="24" height="24" fill="#D9D9D9"/>
</mask>
<g mask="url(#mask0_253_10366)">
<path d="M12 21.5C10.6975 21.5 9.46833 21.2503 8.3125 20.751C7.15667 20.2517 6.14867 19.5718 5.2885 18.7115C4.42817 17.8513 3.74833 16.8433 3.249 15.6875C2.74967 14.5317 2.5 13.3025 2.5 12C2.5 10.6872 2.74967 9.45542 3.249 8.30475C3.74833 7.15408 4.42817 6.14867 5.2885 5.2885C6.14867 4.42817 7.15667 3.74833 8.3125 3.249C9.46833 2.74967 10.6975 2.5 12 2.5C13.3128 2.5 14.5446 2.74967 15.6953 3.249C16.8459 3.74833 17.8513 4.42817 18.7115 5.2885C19.5718 6.14867 20.2517 7.15408 20.751 8.30475C21.2503 9.45542 21.5 10.6872 21.5 12C21.5 13.3025 21.2503 14.5317 20.751 15.6875C20.2517 16.8433 19.5718 17.8513 18.7115 18.7115C17.8513 19.5718 16.8459 20.2517 15.6953 20.751C14.5446 21.2503 13.3128 21.5 12 21.5ZM12 19.9788C12.5103 19.3019 12.9398 18.6192 13.2885 17.9307C13.6372 17.2422 13.9212 16.4897 14.1405 15.673H9.8595C10.0917 16.5153 10.3789 17.2808 10.7213 17.9693C11.0634 18.6578 11.4897 19.3276 12 19.9788ZM10.0635 19.7038C9.68017 19.1538 9.33592 18.5285 9.03075 17.828C8.72558 17.1273 8.48842 16.409 8.31925 15.673H4.927C5.45517 16.7115 6.1635 17.584 7.052 18.2905C7.9405 18.9968 8.94433 19.4679 10.0635 19.7038ZM13.9365 19.7038C15.0557 19.4679 16.0595 18.9968 16.948 18.2905C17.8365 17.584 18.5448 16.7115 19.073 15.673H15.6807C15.4794 16.4153 15.2262 17.1368 14.921 17.8375C14.616 18.5382 14.2878 19.1602 13.9365 19.7038ZM4.298 14.173H8.0155C7.95267 13.8013 7.90708 13.4369 7.87875 13.0798C7.85058 12.7227 7.8365 12.3628 7.8365 12C7.8365 11.6372 7.85058 11.2773 7.87875 10.9202C7.90708 10.5631 7.95267 10.1987 8.0155 9.827H4.298C4.20183 10.1667 4.12817 10.5198 4.077 10.8865C4.02567 11.2532 4 11.6243 4 12C4 12.3757 4.02567 12.7468 4.077 13.1135C4.12817 13.4802 4.20183 13.8333 4.298 14.173ZM9.51525 14.173H14.4848C14.5474 13.8013 14.5929 13.4402 14.6212 13.0895C14.6494 12.7388 14.6635 12.3757 14.6635 12C14.6635 11.6243 14.6494 11.2612 14.6212 10.9105C14.5929 10.5598 14.5474 10.1987 14.4848 9.827H9.51525C9.45258 10.1987 9.40708 10.5598 9.37875 10.9105C9.35058 11.2612 9.3365 11.6243 9.3365 12C9.3365 12.3757 9.35058 12.7388 9.37875 13.0895C9.40708 13.4402 9.45258 13.8013 9.51525 14.173ZM15.9845 14.173H19.702C19.7982 13.8333 19.8718 13.4802 19.923 13.1135C19.9743 12.7468 20 12.3757 20 12C20 11.6243 19.9743 11.2532 19.923 10.8865C19.8718 10.5198 19.7982 10.1667 19.702 9.827H15.9845C16.0473 10.1987 16.0929 10.5631 16.1212 10.9202C16.1494 11.2773 16.1635 11.6372 16.1635 12C16.1635 12.3628 16.1494 12.7227 16.1212 13.0798C16.0929 13.4369 16.0473 13.8013 15.9845 14.173ZM15.6807 8.327H19.073C18.5385 7.27567 17.835 6.40317 16.9625 5.7095C16.09 5.016 15.0813 4.54167 13.9365 4.2865C14.3198 4.8685 14.6608 5.50508 14.9595 6.19625C15.2583 6.88725 15.4987 7.5975 15.6807 8.327ZM9.8595 8.327H14.1405C13.9083 7.491 13.6163 6.72075 13.2645 6.01625C12.9125 5.31175 12.491 4.64675 12 4.02125C11.509 4.64675 11.0875 5.31175 10.7355 6.01625C10.3837 6.72075 10.0917 7.491 9.8595 8.327ZM4.927 8.327H8.31925C8.50125 7.5975 8.74167 6.88725 9.0405 6.19625C9.33917 5.50508 9.68017 4.8685 10.0635 4.2865C8.91217 4.54167 7.90192 5.01767 7.03275 5.7145C6.16342 6.41117 5.4615 7.282 4.927 8.327Z" fill="black"/>
</g>
</svg>

<svg xmlns="http://www.w3.org/2000/svg" width="24" height="24" fill="none" xmlns:v="https://vecta.io/nano"><mask id="A" maskUnits="userSpaceOnUse" x="0" y="0" width="24" height="24" mask-type="alpha"><path fill="#d9d9d9" d="M0 0h24v24H0z"/></mask><g mask="url(#A)"><path d="M12 21.5c-1.303 0-2.532-.25-3.687-.749a9.63 9.63 0 0 1-3.024-2.04c-.86-.86-1.54-1.868-2.039-3.024S2.5 13.303 2.5 12c0-1.313.25-2.545.749-3.695s1.179-2.156 2.039-3.016a9.63 9.63 0 0 1 3.024-2.039C9.468 2.75 10.698 2.5 12 2.5c1.313 0 2.545.25 3.695.749s2.156 1.179 3.016 2.039 1.54 1.866 2.04 3.016.749 2.382.749 3.695c0 1.303-.25 2.532-.749 3.688s-1.179 2.164-2.04 3.024-1.866 1.54-3.016 2.04-2.383.749-3.695.749zm0-1.521a13.67 13.67 0 0 0 1.289-2.048c.349-.689.633-1.441.852-2.258H9.86c.232.842.519 1.608.862 2.296s.768 1.358 1.279 2.009zm-1.937-.275a10.85 10.85 0 0 1-1.033-1.876 12.27 12.27 0 0 1-.711-2.155H4.927a7.84 7.84 0 0 0 2.125 2.618 7.14 7.14 0 0 0 3.012 1.413zm3.873 0a7.14 7.14 0 0 0 3.012-1.413 7.84 7.84 0 0 0 2.125-2.618h-3.392a15.71 15.71 0 0 1-.76 2.164c-.305.701-.633 1.323-.984 1.866zm-9.638-5.531h3.717l-.137-1.093L7.837 12l.042-1.08.137-1.093H4.298c-.096.34-.17.693-.221 1.06a8.02 8.02 0 0 0 0 2.227c.051.367.125.72.221 1.06zm5.217 0h4.97l.136-1.084.042-1.089-.042-1.089-.136-1.084h-4.97l-.136 1.084L9.337 12l.042 1.089.136 1.084zm6.469 0h3.718c.096-.34.17-.693.221-1.059S20 12.376 20 12s-.026-.747-.077-1.114-.125-.72-.221-1.059h-3.718l.137 1.093.042 1.08-.042 1.08-.137 1.093zm-.304-5.846h3.392c-.535-1.051-1.238-1.924-2.111-2.617s-1.881-1.168-3.026-1.423c.383.582.724 1.219 1.023 1.91a13.74 13.74 0 0 1 .721 2.131zm-5.821 0h4.281a12.87 12.87 0 0 0-.876-2.311c-.352-.705-.774-1.37-1.264-1.995-.491.625-.912 1.29-1.264 1.995a12.87 12.87 0 0 0-.876 2.311zm-4.933 0h3.392c.182-.729.422-1.44.721-2.131a12.42 12.42 0 0 1 1.023-1.91c-1.151.255-2.162.731-3.031 1.428S5.462 7.282 4.927 8.327z" fill="#000"/></g></svg>
